dist/assets/images/about/1991.svg

<svg width="27" height="89" viewBox="0 0 27 89" fill="none" xmlns="http://www.w3.org/2000/svg">
<path fill-rule="evenodd" clip-rule="evenodd" d="M26 73.4751V81.6701H10.7806C10.9181 82.3515 10.985 83.0691 10.985 83.8201V88.2851L3.20996 88.2851L3.20996 83.9251C3.20996 82.8486 3.05038 82.2618 2.88478 81.9906C2.76494 81.822 2.55579 81.6701 2.03996 81.6701H1.03996L1.03996 73.4751H26ZM3.71996 81.4401C4.04663 81.9534 4.20996 82.7818 4.20996 83.9251L4.20996 87.2851L9.98496 87.2851V83.8201C9.98496 83.053 9.90931 82.3363 9.75799 81.6701C9.67917 81.3231 9.57983 80.9897 9.45996 80.6701H25V74.4751H2.03996L2.03996 80.6701C2.80996 80.6701 3.36996 80.9268 3.71996 81.4401ZM18.44 69.2711C18.1721 69.2975 17.8971 69.3107 17.615 69.3107H17.44V63.2907H17.615C18.4083 63.2907 19.0266 62.7774 19.47 61.7507C19.9133 60.724 20.135 59.3124 20.135 57.5157C20.135 55.3924 19.75 53.7707 18.98 52.6507C18.3106 51.6568 17.3856 51.0949 16.205 50.965C16.0274 50.9455 15.8441 50.9357 15.655 50.9357H15.025C15.2261 51.2457 15.4091 51.579 15.5741 51.9357C16.328 53.5654 16.705 55.6821 16.705 58.2857C16.705 61.949 16.0983 64.7724 14.885 66.7557C13.6483 68.7157 11.875 69.6957 9.56496 69.6957H9.31996C6.84663 69.6957 4.94496 68.634 3.61496 66.5107C2.26163 64.3874 1.58496 61.3774 1.58496 57.4807C1.58496 54.844 1.9583 52.569 2.70496 50.6557C3.45163 48.7424 4.52496 47.284 5.92496 46.2807C7.30163 45.2774 8.95829 44.7757 10.895 44.7757H15.55C18.6766 44.7757 21.1033 45.8957 22.83 48.1357C24.5566 50.3757 25.42 53.5257 25.42 57.5857C25.42 61.319 24.7433 64.2124 23.39 66.2657C22.1703 68.0641 20.5203 69.0659 18.44 69.2711ZM5.33909 45.4703C3.75524 46.6065 2.57614 48.2351 1.77338 50.2921C0.970685 52.3491 0.584962 54.7533 0.584962 57.4807C0.584962 61.4696 1.27365 64.6957 2.7695 67.0447C4.2794 69.4532 6.49801 70.6957 9.31996 70.6957H9.56496C12.2196 70.6957 14.3116 69.5385 15.7307 67.2893L15.738 67.2775C15.9991 66.8507 16.2328 66.3928 16.44 65.9048V70.3107H17.615C20.4165 70.3107 22.653 69.1341 24.2176 66.827L24.2249 66.816C25.7282 64.5351 26.42 61.4201 26.42 57.5857C26.42 53.3981 25.5311 50.0019 23.622 47.5252C21.6842 45.0113 18.9492 43.7757 15.55 43.7757H10.895C8.7782 43.7757 6.90907 44.3271 5.33909 45.4703ZM17.4243 62.2907H17.615C17.8471 62.2907 18.1905 62.1911 18.5519 61.3542C18.9183 60.5058 19.135 59.249 19.135 57.5157C19.135 55.4893 18.7634 54.1009 18.1559 53.2172L18.1505 53.2093C17.7784 52.6568 17.3158 52.285 16.727 52.0921C17.395 53.8017 17.705 55.8817 17.705 58.2857C17.705 59.7288 17.6136 61.066 17.4243 62.2907ZM18.44 41.7564C18.1721 41.7828 17.8971 41.796 17.615 41.796H17.44V35.776H17.615C18.4083 35.776 19.0266 35.2627 19.47 34.236C19.9133 33.2094 20.135 31.7977 20.135 30.001C20.135 27.8777 19.75 26.256 18.98 25.136C18.3106 24.1422 17.3856 23.5803 16.205 23.4503C16.0274 23.4308 15.8441 23.421 15.655 23.421H15.025C15.2261 23.7311 15.4091 24.0644 15.5741 24.421C16.328 26.0508 16.705 28.1675 16.705 30.771C16.705 34.4344 16.0983 37.2577 14.885 39.241C13.6483 41.201 11.875 42.181 9.56496 42.181H9.31996C6.84663 42.181 4.94496 41.1194 3.61496 38.996C2.26163 36.8727 1.58496 33.8627 1.58496 29.966C1.58496 27.3294 1.95829 25.0544 2.70496 23.141C3.45163 21.2277 4.52496 19.7694 5.92496 18.766C7.30163 17.7627 8.95829 17.261 10.895 17.261H15.55C18.6766 17.261 21.1033 18.381 22.83 20.621C24.5566 22.861 25.42 26.011 25.42 30.071C25.42 33.8044 24.7433 36.6977 23.39 38.751C22.1703 40.5495 20.5203 41.5513 18.44 41.7564ZM5.33909 17.9556C3.75524 19.0918 2.57614 20.7204 1.77338 22.7775C0.970684 24.8344 0.584961 27.2387 0.584961 29.966C0.584961 33.9551 1.2737 37.1813 2.76965 39.5303C4.27954 41.9387 6.49811 43.181 9.31996 43.181H9.56496C12.2196 43.181 14.3116 42.0238 15.7307 39.7747L15.738 39.7629C15.9991 39.336 16.2328 38.8782 16.44 38.3902V42.796H17.615C20.4165 42.796 22.653 41.6195 24.2176 39.3123L24.2249 39.3013C25.7282 37.0204 26.42 33.9055 26.42 30.071C26.42 25.8835 25.5311 22.4873 23.622 20.0105C21.6842 17.4966 18.9492 16.261 15.55 16.261H10.895C8.7782 16.261 6.90907 16.8125 5.33909 17.9556ZM17.4243 34.776H17.615C17.8471 34.776 18.1905 34.6764 18.5519 33.8396C18.9183 32.9912 19.135 31.7344 19.135 30.001C19.135 27.9747 18.7634 26.5862 18.1559 25.7026L18.1505 25.6947C17.7784 25.1421 17.3158 24.7704 16.727 24.5775C17.395 26.2871 17.705 28.3671 17.705 30.771C17.705 32.2142 17.6136 33.5513 17.4243 34.776ZM26 0.296387L26 8.49139L10.7806 8.49139C10.9181 9.17278 10.985 9.8904 10.985 10.6414V15.1064H3.20996V10.7464C3.20996 9.66982 3.05036 9.08301 2.88475 8.81182C2.76491 8.64328 2.55576 8.49139 2.03996 8.49139H1.03996L1.03996 0.296388L26 0.296387ZM3.71996 8.26139C4.04663 8.77472 4.20996 9.60306 4.20996 10.7464V14.1064H9.98496V10.6414C9.98496 9.87428 9.9093 9.15762 9.75799 8.49139C9.67917 8.14437 9.57983 7.81104 9.45996 7.49139L25 7.49139L25 1.29639H2.03996L2.03996 7.49139C2.80996 7.49139 3.36996 7.74805 3.71996 8.26139ZM9.87743 62.3709C9.99396 62.28 10.1431 62.1014 10.2848 61.7561C10.5799 61.0367 10.77 59.7443 10.77 57.7607C10.77 56.2271 10.6458 54.9418 10.4108 53.8918C10.2324 53.1502 10.0178 52.5678 9.78226 52.1219C9.29226 52.3309 8.89475 52.7217 8.57721 53.3535C8.11299 54.2771 7.83496 55.7031 7.83496 57.7257C7.83496 59.6104 8.03933 60.8916 8.36804 61.6664C8.52797 62.0434 8.69505 62.2467 8.83091 62.3534C8.95201 62.4486 9.08902 62.5007 9.28496 62.5007L9.45996 62.5007C9.65101 62.5007 9.7746 62.4511 9.87743 62.3709ZM10.23 50.9707C10.72 51.6007 11.105 52.499 11.385 53.6657C11.6416 54.809 11.77 56.174 11.77 57.7607C11.77 59.7674 11.5833 61.2257 11.21 62.1357C10.8366 63.0457 10.2533 63.5007 9.45996 63.5007L9.28496 63.5007C7.65163 63.5007 6.83496 61.5757 6.83496 57.7257C6.83496 53.549 7.96663 51.2974 10.23 50.9707ZM9.87743 34.8563C9.99396 34.7654 10.1431 34.5868 10.2848 34.2415C10.5799 33.5221 10.77 32.2296 10.77 30.246C10.77 28.7125 10.6458 27.4272 10.4108 26.3772C10.2324 25.6355 10.0178 25.0532 9.78226 24.6072C9.29226 24.8162 8.89474 25.2071 8.57721 25.8389C8.11299 26.7625 7.83496 28.1885 7.83496 30.211C7.83496 32.0957 8.03933 33.3769 8.36804 34.1517C8.52797 34.5287 8.69505 34.732 8.83091 34.8388C8.95201 34.9339 9.08902 34.986 9.28496 34.986L9.45996 34.986C9.651 34.986 9.7746 34.9365 9.87743 34.8563ZM10.23 23.456C10.72 24.086 11.105 24.9844 11.385 26.151C11.6416 27.2944 11.77 28.6594 11.77 30.246C11.77 32.2527 11.5833 33.711 11.21 34.621C10.8366 35.531 10.2533 35.986 9.45996 35.986L9.28496 35.986C7.65163 35.986 6.83496 34.061 6.83496 30.211C6.83496 26.0344 7.96663 23.7827 10.23 23.456Z" fill="#313131"/>
</svg>

<svg width="27" height="89" fill="none" xmlns="http://www.w3.org/2000/svg"><path fill-rule="evenodd" clip-rule="evenodd" d="M26 73.475v8.195H10.78c.138.681.205 1.4.205 2.15v4.465H3.21v-4.36c0-1.076-.16-1.663-.325-1.934-.12-.169-.33-.32-.845-.32h-1v-8.196H26zM3.72 81.44c.327.513.49 1.342.49 2.485v3.36h5.775V83.82c0-.767-.076-1.484-.227-2.15a7.703 7.703 0 00-.298-1H25v-6.195H2.04v6.195c.77 0 1.33.257 1.68.77zm14.72-12.169a8.41 8.41 0 01-.825.04h-.175v-6.02h.175c.793 0 1.412-.514 1.855-1.54.443-1.027.665-2.439.665-4.235 0-2.124-.385-3.745-1.155-4.865-.67-.994-1.594-1.556-2.775-1.686-.178-.02-.36-.03-.55-.03h-.63c.201.31.384.644.55 1 .753 1.63 1.13 3.747 1.13 6.35 0 3.664-.607 6.487-1.82 8.47-1.237 1.96-3.01 2.94-5.32 2.94H9.32c-2.473 0-4.375-1.061-5.705-3.184-1.353-2.124-2.03-5.134-2.03-9.03 0-2.637.373-4.912 1.12-6.825.747-1.914 1.82-3.372 3.22-4.375 1.377-1.004 3.033-1.505 4.97-1.505h4.655c3.127 0 5.553 1.12 7.28 3.36 1.727 2.24 2.59 5.39 2.59 9.45 0 3.733-.677 6.626-2.03 8.68-1.22 1.798-2.87 2.8-4.95 3.005zm-13.1-23.8c-1.585 1.136-2.764 2.764-3.567 4.821C.971 52.35.585 54.753.585 57.481c0 3.989.689 7.215 2.184 9.564 1.51 2.408 3.729 3.65 6.551 3.65h.245c2.655 0 4.747-1.156 6.166-3.406l.007-.011c.261-.427.495-.885.702-1.373v4.406h1.175c2.802 0 5.038-1.177 6.603-3.484l.007-.011c1.503-2.28 2.195-5.396 2.195-9.23 0-4.188-.889-7.584-2.798-10.06-1.938-2.515-4.673-3.75-8.072-3.75h-4.655c-2.117 0-3.986.551-5.556 1.694zm12.084 16.82h.191c.232 0 .576-.1.937-.937.366-.848.583-2.105.583-3.838 0-2.027-.372-3.415-.98-4.299l-.005-.008c-.372-.552-.834-.924-1.423-1.117.668 1.71.978 3.79.978 6.194 0 1.443-.091 2.78-.28 4.005zm1.016-20.535a8.41 8.41 0 01-.825.04h-.175v-6.02h.175c.793 0 1.412-.513 1.855-1.54.443-1.027.665-2.438.665-4.235 0-2.123-.385-3.745-1.155-4.865-.67-.994-1.594-1.556-2.775-1.686a4.91 4.91 0 00-.55-.029h-.63c.201.31.384.643.55 1 .753 1.63 1.13 3.747 1.13 6.35 0 3.663-.607 6.487-1.82 8.47-1.237 1.96-3.01 2.94-5.32 2.94H9.32c-2.473 0-4.375-1.062-5.705-3.185-1.353-2.123-2.03-5.133-2.03-9.03 0-2.637.373-4.912 1.12-6.825.747-1.913 1.82-3.372 3.22-4.375 1.377-1.003 3.033-1.505 4.97-1.505h4.655c3.127 0 5.553 1.12 7.28 3.36 1.727 2.24 2.59 5.39 2.59 9.45 0 3.733-.677 6.627-2.03 8.68-1.22 1.799-2.87 2.8-4.95 3.005zm-13.1-23.8c-1.585 1.136-2.764 2.764-3.567 4.822-.802 2.056-1.188 4.46-1.188 7.188 0 3.99.689 7.215 2.185 9.564 1.51 2.409 3.728 3.651 6.55 3.651h.245c2.655 0 4.747-1.157 6.166-3.406l.007-.012c.261-.427.495-.885.702-1.373v4.406h1.175c2.802 0 5.038-1.176 6.603-3.484l.007-.01c1.503-2.282 2.195-5.396 2.195-9.231 0-4.188-.889-7.584-2.798-10.06-1.938-2.514-4.673-3.75-8.072-3.75h-4.655c-2.117 0-3.986.552-5.556 1.695zm12.084 16.82h.191c.232 0 .576-.1.937-.936.366-.849.583-2.106.583-3.839 0-2.026-.372-3.415-.98-4.298l-.005-.008c-.372-.553-.834-.925-1.423-1.117.668 1.71.978 3.79.978 6.193 0 1.443-.091 2.78-.28 4.005zM26 .296v8.195H10.78c.138.682.205 1.4.205 2.15v4.465H3.21v-4.36c0-1.076-.16-1.663-.325-1.934-.12-.169-.33-.32-.845-.32h-1V.295H26zM3.72 8.261c.327.514.49 1.342.49 2.485v3.36h5.775v-3.465a9.72 9.72 0 00-.227-2.15 7.704 7.704 0 00-.298-1H25V1.296H2.04v6.195c.77 0 1.33.257 1.68.77zm6.157 54.11c.117-.091.266-.27.408-.615.295-.72.485-2.012.485-3.995 0-1.534-.124-2.82-.36-3.87-.178-.74-.392-1.323-.628-1.77-.49.21-.887.6-1.205 1.232-.464.924-.742 2.35-.742 4.373 0 1.884.204 3.166.533 3.94.16.377.327.58.463.687a.687.687 0 00.454.148h.175c.191 0 .315-.05.417-.13zm.353-11.4c.49.63.875 1.528 1.155 2.695.257 1.143.385 2.508.385 4.095 0 2.006-.187 3.465-.56 4.375-.373.91-.957 1.365-1.75 1.365h-.175c-1.633 0-2.45-1.925-2.45-5.775 0-4.177 1.132-6.429 3.395-6.755zm-.353-16.115c.117-.09.266-.27.408-.614.295-.72.485-2.012.485-3.996 0-1.534-.124-2.819-.36-3.869-.178-.741-.392-1.324-.628-1.77-.49.21-.887.6-1.205 1.232-.464.924-.742 2.35-.742 4.372 0 1.885.204 3.166.533 3.94.16.378.327.581.463.688a.687.687 0 00.454.147h.175c.191 0 .315-.05.417-.13zm.353-11.4c.49.63.875 1.528 1.155 2.695.257 1.143.385 2.508.385 4.095 0 2.007-.187 3.465-.56 4.375-.373.91-.957 1.365-1.75 1.365h-.175c-1.633 0-2.45-1.925-2.45-5.775 0-4.177 1.132-6.428 3.395-6.755z" fill="#313131"/></svg>
